img/button-hover.svg

<svg width="186" height="66" viewBox="0 0 186 66" fill="none" xmlns="http://www.w3.org/2000/svg">
<path d="M49.2384 66C44.3954 66 40.2225 63.1311 38.3265 59H26.2384C11.879 59 0.238403 47.3594 0.238403 33C0.238403 18.6406 11.879 7.00002 26.2384 7.00002H38.3265C40.2225 2.86896 44.3954 1.52588e-05 49.2384 1.52588e-05H136.238C141.081 1.52588e-05 145.254 2.86896 147.15 7.00002H159.238C173.598 7.00002 185.238 18.6406 185.238 33C185.238 47.3594 173.598 59 159.238 59H147.15C145.254 63.1311 141.081 66 136.238 66H49.2384Z" fill="#FFB8C6"/>
<path fill-rule="evenodd" clip-rule="evenodd" d="M41.5331 54L42.8707 56.9144C43.9819 59.3353 46.421 61 49.2384 61H136.238C139.056 61 141.495 59.3353 142.606 56.9144L143.944 54H159.238C170.836 54 180.238 44.598 180.238 33C180.238 21.402 170.836 12 159.238 12H143.944L142.606 9.08566C141.495 6.66471 139.056 5.00002 136.238 5.00002H49.2384C46.421 5.00002 43.9819 6.66471 42.8707 9.08566L41.5331 12H26.2384C14.6404 12 5.2384 21.402 5.2384 33C5.2384 44.598 14.6404 54 26.2384 54H41.5331ZM38.3265 7.00002H26.2384C11.879 7.00002 0.238403 18.6406 0.238403 33C0.238403 47.3594 11.879 59 26.2384 59H38.3265C40.2225 63.1311 44.3954 66 49.2384 66H136.238C141.081 66 145.254 63.1311 147.15 59H159.238C173.598 59 185.238 47.3594 185.238 33C185.238 18.6406 173.598 7.00002 159.238 7.00002H147.15C145.254 2.86896 141.081 1.52588e-05 136.238 1.52588e-05H49.2384C44.3954 1.52588e-05 40.2225 2.86896 38.3265 7.00002Z" fill="#7BB361"/>
</svg>

<svg width="186" height="66" fill="none" xmlns="http://www.w3.org/2000/svg"><path d="M49.238 66a12 12 0 01-10.911-7H26.238c-14.359 0-26-11.64-26-26s11.641-26 26-26h12.089a12 12 0 0110.911-7h87c4.843 0 9.016 2.869 10.912 7h12.088c14.36 0 26 11.64 26 26s-11.64 26-26 26H147.15c-1.896 4.131-6.069 7-10.912 7h-87z" fill="#FFB8C6"/><path fill-rule="evenodd" clip-rule="evenodd" d="M41.533 54l1.338 2.914A7.002 7.002 0 0049.238 61h87a7.002 7.002 0 006.368-4.086L143.944 54h15.294c11.598 0 21-9.402 21-21s-9.402-21-21-21h-15.294l-1.338-2.914A7.002 7.002 0 00136.238 5h-87a7.002 7.002 0 00-6.367 4.086L41.533 12H26.238c-11.598 0-21 9.402-21 21s9.402 21 21 21h15.295zM38.327 7H26.238c-14.359 0-26 11.64-26 26s11.641 26 26 26h12.089a12 12 0 0010.911 7h87c4.843 0 9.016-2.869 10.912-7h12.088c14.36 0 26-11.64 26-26s-11.64-26-26-26H147.15c-1.896-4.131-6.069-7-10.912-7h-87a12 12 0 00-10.911 7z" fill="#7BB361"/></svg>
